!!!SOCIAL_FUNCTION:	bird dance songs
!!!PDT:	1956
!!!OTL: No_140_Sandhill_Crane_Dance_Song_(d).krn
!!!LANG: Non-Tone
!!!LING_GROUP: Muskogean
!!!REG: Florida
**kern
*staff1
=1-
=
*clefF4
*k[b-e-a-]
*M2/4
8F\L
8F\J
4E-\
=2
8F\L
8F\J
8C/
8r
=3
2E-\
=4
4E-\
4r
=5
2E-\
=6
8F\L
8E-\J
8C/
8r
=7
2E-\
=8||
*M3/4
2E-\
8.F\L
16F\Jk
=9||
*M2/4
4.F\
8E-\
=10
8.F\L
16E-\Jk
8F\L
16E-\Jk
16r
=11||
*M3/4
4..E-\
16BB-/
4E-\
=12||
*M2/4
2E-\
==:|!
*-
